X: 6c
T: My Darling Asleep
M:6/8
R:jig
K:D
|"D" fdd "A"cAA|"G" BGB "D"A2G|FAA "(Bm)"def|"Em"gfg "A7"eag|
|"D"fdd "A"cAA |"G" BGB "D"A2G|FAA def|"A7"gec "D"d2 A :|
|:  "D"FAA "G"BAG|"D"FAA "G"BAG |"D" FAA "(Bm)"def|"Em" gfg "A7"eag|
|"D"fdd "A"cAA|"G"BGB "D"A2G|FAA def|"A7"gec "D"d2 e:|


